X:16
T:New Theatre. THO5.016, The
M:C
L:1/8
B:Thompson's Complete Collection of 200 Favourite Dances Vol.5
F:https://www.libraryofdance.org/manuals/1780c-Thompson-Compleat-5.pdf
Z:vmp. Peter Dunk 2024
N:NB. These runs of four semiquavers are notated as demi-semiquavers in the original
Q:1/4=110
K:D
A|F>D d2 c>A g2|fdcd "^NB"(e/d/c/B/) AG|F>D d2 c>A g2|fdAc d2D:|
%
|:g|fd (f/g/a) ec (e/f/g)|fd (f/g/a) (e/d/c/B/) Ag|\\
fd (f/g/a) ec (e/f/g)|fdAc d2D:|
%
|:A|FDGE AFBG|edcd (e/d/c/B/) Ag|fdge afbg|faec d2D:|
W:
W:Right hands across half round ./. Left hands back again ./:
W:Lead down two Couples :/. up again and cast off :/:
W:Allemand with the Right hands ./: then with the left hands :/:

